X:1
T:Title
%%score { 1 | 2 }
L:1/8
Q:1/4=100
M:4/4
K:Bb
V:1 treble nm="Grand Piano"
V:2 bass 
V:1
 [DF]3 [EG] [DF]2 [Fd]2 | [Ec]3 [Fd] [Ec]2 [DB]2 | [Gc]2 [GB]2 [EG]2 [GB]2 | [Fd]3 [Ec] [DB]4 | %4
w: Paul~Rader * * *||||
 [DF]3 [EG] [FB]2 c2 | d3 c c2 B2 | G2 B2 F2 [Fd]2 | [Ec]3 [DB] [DB]4 | [DF]3 [EG] [DF]2 [Fd]2 | %9
w: |||||
 c3 =B c4 | c3 =B c2 d2 | [DB]2 [EG]2 [DF]4 | [Fd]3 [Fc] [FB]2 [Fd]2 | [_Ad]2 [Ac]2 [GB]2 [EG]2 | %14
w: |||||
 [GB]3 G F2 d2 | c3 [DB] [DB]4 |] %16
w: ||
V:2
 [B,,B,]3 [B,,B,] [B,,B,]2 [B,,B,]2 | [F,A,]3 [F,A,] [B,,B,]2 [B,,B,]2 | %2
 [E,B,]2 [E,B,]2 [E,B,]2 [E,E]2 | [F,B,]3 [F,A,] [B,,B,]4 | %4
 [B,,B,]3 [E,B,] [D,B,]2[K:treble] [F,A,F]2 | [B,F]3[K:bass] [F,A,E] [^F,A,E]2 [G,B,D]2 | %6
 [E,B,E]2 [E,G,E]2 [D,B,]2 [B,,B,]2 | [F,A,]3 [B,,B,] [B,,B,]4 | %8
 [B,,B,]3 [B,,B,] [B,,B,]2 [B,,B,]2 | [F,A,E]3 [F,_A,D] [F,=A,E]4 | %10
 [F,A,E]3 [F,_A,D] [F,=A,E]2 [F,A,F]2 | [B,,B,]2 [B,,B,]2 [B,,B,]4 | %12
 [B,,B,]3 [C,A,] [D,B,]2 [B,,B,]2 | [E,B,]2 [E,B,]2 [E,B,]2 [E,B,]2 | %14
 [E,E]3 [E,B,E] [F,B,D]2 [F,B,F]2 | [F,A,E]3 [B,,B,] [B,,B,]4 |] %16

